packages/foundations/icons/Business/Euro.svg

<svg width="24" height="24" viewBox="0 0 24 24" fill="none" xmlns="http://www.w3.org/2000/svg">
<path fill-rule="evenodd" clip-rule="evenodd" d="M4 12H5.75C5.75 12.6802 5.80581 13.3488 5.91302 14H4C3.44772 14 3 14.4477 3 15C3 15.5523 3.44772 16 4 16H6.42026C7.87411 20.1876 11.5477 23.25 16 23.25C17.245 23.25 18.4393 23.006 19.5432 22.5601C20.1833 22.3015 20.4927 21.573 20.2341 20.9329C19.9756 20.2928 19.247 19.9835 18.6069 20.2421C17.792 20.5712 16.915 20.75 16 20.75C13.0618 20.75 10.4075 18.8587 9.10215 16H14C14.5523 16 15 15.5523 15 15C15 14.4477 14.5523 14 14 14H8.45136C8.31985 13.3608 8.25 12.6918 8.25 12H14C14.5523 12 15 11.5523 15 11C15 10.4477 14.5523 10 14 10H8.45136C9.26268 6.05673 12.4206 3.25 16 3.25C16.9034 3.25 17.7696 3.42426 18.5757 3.74543C19.217 4.00095 19.9441 3.6882 20.1996 3.04687C20.4551 2.40555 20.1424 1.67851 19.5011 1.42298C18.4088 0.987795 17.2291 0.75 16 0.75C10.8646 0.75 6.76516 4.82422 5.91302 10H4C3.44772 10 3 10.4477 3 11C3 11.5523 3.44772 12 4 12ZM5.91302 10H8.45136C8.31985 10.6392 8.25 11.3082 8.25 12H5.75C5.75 11.3198 5.80581 10.6512 5.91302 10ZM8.45136 14H5.91302C6.02637 14.6885 6.19719 15.3575 6.42026 16H9.10215C8.81731 15.3762 8.59669 14.7063 8.45136 14Z" fill="#3D474D"/>
<path d="M5.75 12H8.25C8.25 11.3082 8.31985 10.6392 8.45136 10H5.91302C5.80581 10.6512 5.75 11.3198 5.75 12Z" fill="#3D474D"/>
<path d="M8.45136 14H5.91302C6.02637 14.6885 6.19719 15.3575 6.42026 16H9.10215C8.81731 15.3762 8.59669 14.7063 8.45136 14Z" fill="#3D474D"/>
</svg>

<svg width="24" height="24" fill="none" xmlns="http://www.w3.org/2000/svg"><path fill-rule="evenodd" clip-rule="evenodd" d="M4 12h1.75c0 .68.056 1.349.163 2H4a1 1 0 100 2h2.42c1.454 4.188 5.128 7.25 9.58 7.25 1.245 0 2.44-.244 3.543-.69a1.25 1.25 0 10-.936-2.318A6.935 6.935 0 0116 20.75c-2.938 0-5.592-1.891-6.898-4.75H14a1 1 0 100-2H8.451a9.918 9.918 0 01-.201-2H14a1 1 0 100-2H8.451c.812-3.943 3.97-6.75 7.549-6.75.903 0 1.77.174 2.576.495a1.25 1.25 0 00.925-2.322A9.433 9.433 0 0016 .75C10.865.75 6.765 4.824 5.913 10H4a1 1 0 100 2zm1.913-2h2.538a9.918 9.918 0 00-.201 2h-2.5c0-.68.056-1.349.163-2zm2.538 4H5.913c.113.688.284 1.357.507 2h2.682a9.35 9.35 0 01-.65-2z" fill="#3D474D"/><path d="M5.75 12h2.5c0-.692.07-1.36.201-2H5.913a12.31 12.31 0 00-.163 2zM8.451 14H5.913c.113.688.284 1.357.507 2h2.682a9.35 9.35 0 01-.65-2z" fill="#3D474D"/></svg>
